X:1
T:Morin You Expected
R:reel
C:Mac Morin
O:21th Century Cape Breton
S:Silver Apple News, 2004
D:Mac Morin, Mac Morin
Z:Paul Stewart Cranford (P.S.C.), <http://www.cranfordpub.com>
Q:333
L:1/8
M:C|
K:Ador
g|f/a z/ ed Bdef|gded Bdeg|f/a z/ ed Bdef|gdeg BAA:|
|:B|ABGA Bdef|gded BdeB|ABGA Bdef|gdeg BAA:|
